icons/refund-2-fill.svg

<svg xmlns="http://www.w3.org/2000/svg" width="24" height="24" fill="none"><g clip-path="url(#a)"><g><path fill="#121212" d="M12 2C17.523 2 22 6.477 22 12C22 17.523 17.523 22 12 22C9.66848 22.0034 7.40965 21.1888 5.617 19.698L5.373 19.489L6.275 17.587C7.56298 18.9071 9.26752 19.7416 11.1001 19.9493C12.9327 20.157 14.7808 19.7252 16.3315 18.7268C17.8823 17.7285 19.0405 16.225 19.61 14.4708C20.1796 12.7166 20.1256 10.8195 19.4571 9.1006C18.7886 7.38169 17.5467 5.94654 15.9417 5.03807C14.3366 4.1296 12.4669 3.80362 10.6491 4.1153C8.83134 4.42697 7.17706 5.35717 5.9663 6.74843C4.75554 8.1397 4.06269 9.90657 4.005 11.75L4 12H6.5L3.794 17.716C2.62321 16.0401 1.99683 14.0444 2 12C2 6.477 6.477 2 12 2ZM13 6V8H15.5V10H10C9.87505 9.99977 9.75455 10.0463 9.66221 10.1305C9.56988 10.2147 9.51241 10.3304 9.50112 10.4548C9.48983 10.5793 9.52554 10.7034 9.60122 10.8028C9.67689 10.9023 9.78705 10.9697 9.91 10.992L10 11H14C14.663 11 15.2989 11.2634 15.7678 11.7322C16.2366 12.2011 16.5 12.837 16.5 13.5C16.5 14.163 16.2366 14.7989 15.7678 15.2678C15.2989 15.7366 14.663 16 14 16H13V18H11V16H8.5V14H14C14.1249 14.0002 14.2454 13.9537 14.3378 13.8695C14.4301 13.7853 14.4876 13.6696 14.4989 13.5452C14.5102 13.4207 14.4745 13.2966 14.3988 13.1972C14.3231 13.0977 14.2129 13.0303 14.09 13.008L14 13H10C9.33696 13 8.70107 12.7366 8.23223 12.2678C7.76339 11.7989 7.5 11.163 7.5 10.5C7.5 9.83696 7.76339 9.20107 8.23223 8.73223C8.70107 8.26339 9.33696 8 10 8H11V6H13Z"/></g></g><defs><clipPath id="a"><rect width="24" height="24" fill="white"/></clipPath></defs></svg>

<svg width="24" height="24" fill="none" xmlns="http://www.w3.org/2000/svg"><g clip-path="url(#a)"><path d="M12 2c5.523 0 10 4.477 10 10s-4.477 10-10 10a9.96 9.96 0 0 1-6.383-2.302l-.244-.209.902-1.902a8 8 0 1 0-2.27-5.837L4 12h2.5l-2.706 5.716A9.954 9.954 0 0 1 2 12C2 6.477 6.477 2 12 2Zm1 4v2h2.5v2H10a.5.5 0 0 0-.09.992L10 11h4a2.5 2.5 0 0 1 0 5h-1v2h-2v-2H8.5v-2H14a.5.5 0 0 0 .09-.992L14 13h-4a2.5 2.5 0 0 1 0-5h1V6h2Z" /></g><defs><clipPath id="a"><path fill="#fff" d="M0 0h24v24H0z"/></clipPath></defs></svg>
